styles/4/Numix/128/places/green-folder-open.svg

<!-- Created with Inkscape (http://www.inkscape.org/) -->
<svg xmlns="http://www.w3.org/2000/svg" viewBox="0 0 128 128">
 <g transform="translate(0,-924.3622)">
  <rect width="104" height="46" x="12" y="943.36" rx="5" style="fill:#388e3c;fill-opacity:1;stroke:none"/>
  <rect width="120" height="60" x="4" y="977.36" rx="8" style="fill:#66bb6a;fill-opacity:1;stroke:none"/>
  <path d="m 12 977.36 c -4.432 0 -8 3.568 -8 8 l 0 2 c 0 -4.432 3.568 -8 8 -8 l 104 0 c 4.432 0 8 3.568 8 8 l 0 -2 c 0 -4.432 -3.568 -8 -8 -8 l -104 0 z" style="fill:#fff;opacity:0.1;fill-opacity:1;stroke:none"/>
  <path d="m 17 19 c -2.77 0 -5 2.23 -5 5 l 0 2 c 0 -2.77 2.23 -5 5 -5 l 94 0 c 2.77 0 5 2.23 5 5 l 0 -2 c 0 -2.77 -2.23 -5 -5 -5 l -94 0 z" transform="translate(0,924.3622)" style="fill:#000;opacity:0.05;fill-opacity:1;stroke:none"/>
 </g>
</svg>

<?xml version="1.0" encoding="UTF-8" standalone="no"?>
<!-- Created with Inkscape (http://www.inkscape.org/) -->

<svg
   xmlns:dc="http://purl.org/dc/elements/1.1/"
   xmlns:cc="http://creativecommons.org/ns#"
   xmlns:rdf="http://www.w3.org/1999/02/22-rdf-syntax-ns#"
   xmlns:svg="http://www.w3.org/2000/svg"
   xmlns="http://www.w3.org/2000/svg"
   xmlns:sodipodi="http://sodipodi.sourceforge.net/DTD/sodipodi-0.dtd"
   xmlns:inkscape="http://www.inkscape.org/namespaces/inkscape"
   width="128"
   height="128"
   id="svg2"
   version="1.1"
   inkscape:version="0.91 r"
   sodipodi:docname="green-folder-open.svg"
   inkscape:export-filename="/media/Data/Main/Visuals/Icons/Numix/Desktop/repos/numix-wiki/Gjorgi/Numix-folders/48/New/folder-144.png"
   inkscape:export-xdpi="270"
   inkscape:export-ydpi="270">
  <defs
     id="defs4" />
  <sodipodi:namedview
     id="base"
     pagecolor="#ffffff"
     bordercolor="#666666"
     borderopacity="1.0"
     inkscape:pageopacity="0.0"
     inkscape:pageshadow="2"
     inkscape:zoom="11.144306"
     inkscape:cx="10.433544"
     inkscape:cy="83.045512"
     inkscape:document-units="px"
     inkscape:current-layer="layer1"
     showgrid="true"
     inkscape:window-width="1920"
     inkscape:window-height="1023"
     inkscape:window-x="0"
     inkscape:window-y="28"
     inkscape:window-maximized="1"
     showguides="true"
     inkscape:guide-bbox="true">
    <inkscape:grid
       type="xygrid"
       id="grid2985"
       empspacing="5"
       visible="true"
       enabled="true"
       snapvisiblegridlinesonly="true" />
  </sodipodi:namedview>
  <metadata
     id="metadata7">
    <rdf:RDF>
      <cc:Work
         rdf:about="">
        <dc:format>image/svg+xml</dc:format>
        <dc:type
           rdf:resource="http://purl.org/dc/dcmitype/StillImage" />
        <dc:title />
      </cc:Work>
    </rdf:RDF>
  </metadata>
  <g
     inkscape:label="Layer 1"
     inkscape:groupmode="layer"
     id="layer1"
     transform="translate(0,-924.3622)">
    <rect
       style="fill:#388e3c;fill-opacity:1;stroke:none"
       id="rect3839"
       width="104"
       height="46"
       x="12"
       y="943.36218"
       rx="5"
       ry="5" />
    <rect
       style="fill:#66bb6a;fill-opacity:1;stroke:none"
       id="rect2990"
       width="120"
       height="60"
       x="4"
       y="977.36218"
       rx="8"
       ry="8" />
    <path
       style="opacity:0.1;fill:#ffffff;fill-opacity:1;stroke:none"
       d="m 12,977.36222 c -4.432,0 -8,3.568 -8,8 l 0,2 c 0,-4.432 3.568,-8 8,-8 l 104,0 c 4.432,0 8,3.568 8,8 l 0,-2 c 0,-4.432 -3.568,-8 -8,-8 l -104,0 z"
       id="rect3763"
       inkscape:connector-curvature="0" />
    <path
       style="fill:#000000;fill-opacity:1;stroke:none;opacity:0.05"
       d="M 17 19 C 14.23 19 12 21.23 12 24 L 12 26 C 12 23.23 14.23 21 17 21 L 111 21 C 113.77 21 116 23.23 116 26 L 116 24 C 116 21.23 113.77 19 111 19 L 17 19 z "
       transform="translate(0,924.3622)"
       id="rect2986" />
  </g>
</svg>
